X:171
T:Old woman - Woodrich
%%VWML:SBG-1-2-699-0
F:http://www.vwml.org/record/SBG/1/2/699
Z:Original Sibelius transcriptions by M. & S. Graebe
M:3/4
I:linebreak $
K:G
V:1 treble nm="P1"
V:1
 B | B B B | B B A | G G B | A3 | G2 G | F E D | E3- | E2 B | B B B |$ B B B | G G B | A2 B | %13
 B B B | e2 e | A2 c | B2 c/4 B/4 | A G F | E2 ^D |$ F2 A | c3 | e2 e | ^d ^c B | e3- | e3 | %25
 ^d2 d | ^c B c | e3 | %28











